X: 13
T: Wink And She'll Follow You
Z: muirn
S: https://thesession.org/tunes/425#setting52028
R: slip jig
M: 9/8
L: 1/8
K: Dmix
|:D2A A2G ABc | E2A AGE G2E | D2A A2G ABc |1 BAG AGE G2E :|2 BAG AGE GED ||
c2d ecA ABc | B2c dBG GAB | c2d ecA ABc | BAG AGE GAB |
c2d ecA ABc | B2c dBG GBd | gfg ecA ABc | BAG AGE G2E ||

%-------------------- TUNE SEPARATOR --------------------%

